packages/core/src/svgs/sudo.svg

<svg width="24" height="24" viewBox="0 0 24 24" fill="none" xmlns="http://www.w3.org/2000/svg">
<g clip-path="url(#clip0_31_19452)">
<path d="M0 0H24V24H0V0Z" fill="#B9B9FF"/>
<path d="M5.80279 6.85693H4.28564L6.12422 11.7469L4.28564 16.7141H5.80279L7.62422 11.7469L5.80279 6.85693ZM18.1971 6.85693H19.7142L17.8756 11.7469L19.7142 16.7141H18.1971L16.3714 11.7469L18.1971 6.85693ZM14.9014 10.7141H13.5942C13.5942 10.2855 12.9599 9.85693 12.1242 9.85693C11.2885 9.85693 10.5171 10.0369 10.5171 10.9841C10.5171 11.9269 11.4042 11.7726 13.3028 12.2055C14.8199 12.5526 14.9999 13.5984 14.9999 14.2326C14.9999 15.1326 14.6185 16.2855 12.1242 16.2855C9.47565 16.2855 8.93993 14.7769 9.00422 14.1426H10.4356C10.4356 14.9012 11.2199 15.4284 12.1242 15.4284C13.0242 15.4284 13.7614 14.9998 13.7614 14.2284C13.7614 13.4612 13.1442 13.2812 11.0956 12.9512C9.4585 12.6898 9.17993 11.5284 9.24422 10.9841C9.17993 10.3198 9.64707 8.99979 12.0256 8.99979C14.4042 8.99979 14.9356 10.1141 14.9014 10.7141Z" fill="black"/>
</g>
<defs>
<clipPath id="clip0_31_19452">
<rect width="24" height="24" fill="white"/>
</clipPath>
</defs>
</svg>

<svg xmlns="http://www.w3.org/2000/svg" width="24" height="24" fill="none" viewBox="0 0 24 24"><g clip-path="url(#a)"><path fill="#B9B9FF" d="M0 0h24v24H0z"/><path fill="#000" d="M5.803 6.857H4.286l1.838 4.89-1.838 4.967h1.517l1.821-4.967zm12.394 0h1.517l-1.838 4.89 1.838 4.967h-1.517l-1.826-4.967zm-3.296 3.857h-1.307c0-.428-.634-.857-1.47-.857-.835 0-1.607.18-1.607 1.127 0 .943.887.789 2.786 1.222C14.82 12.553 15 13.598 15 14.233c0 .9-.382 2.052-2.876 2.052-2.648 0-3.184-1.508-3.12-2.142h1.432c0 .758.784 1.285 1.688 1.285.9 0 1.637-.428 1.637-1.2 0-.767-.617-.947-2.665-1.277-1.637-.261-1.916-1.423-1.852-1.967C9.18 10.32 9.647 9 12.026 9s2.91 1.114 2.875 1.714"/></g><defs><clipPath id="a"><path fill="#fff" d="M0 0h24v24H0z"/></clipPath></defs></svg>
